lib/brands/icons/google-web-designer.svg

<svg xmlns="http://www.w3.org/2000/svg" fill="none" aria-hidden="true" viewBox="0 0 48 48"><g id="google-web-designer-Icon"><g id="Group"><path id="Vector" fill="#F4B500" d="M20.4122 22.2392H8.43505C8.43505 22.2392 7.80421 30.0872 14.6905 36.5809C20.9636 42.4923 28.494 41.9894 28.494 41.9894V30.3387C24.5369 30.3387 20.4122 27.0477 20.4122 22.2392Z"/><path id="Vector_2" fill="#4481F6" d="M27.3158 15.3132V6.00506C27.3158 6.00506 20.6809 5.64332 15.5636 11.0385C11.5536 15.2074 11.1963 20.4658 11.1963 20.4658C11.1963 20.4658 18.6252 21.8554 20.4074 22.2392C20.3589 18.313 23.4337 15.3132 27.3158 15.3132Z"/><path id="Vector_3" fill="#3566C5" d="M11.2007 20.4658C11.2007 20.4658 11.0418 21.4231 11.1345 22.2392H20.4118L11.2007 20.4658Z"/><path id="Vector_4" fill="#AF362B" d="M27.3164 15.3132L29.103 8.88133C29.103 8.88133 27.9472 8.73134 27.3164 8.80192V15.3132Z"/><path id="Vector_5" fill="#DB4533" d="M27.3164 15.3132C27.3164 15.3132 33.0469 15.1941 33.3116 21.3569H39.5759C39.5759 21.3569 40.1405 11.2944 29.103 8.88132C28.6619 10.4827 27.3164 15.3132 27.3164 15.3132Z"/><path id="Vector_6" fill="#CCCCCC" d="M28.498 30.3387L30.6553 25.5434C30.6553 25.5434 33.2007 24.3347 33.3154 21.3525C34.1403 21.7143 36.1255 22.5348 37.0342 22.9363C36.8357 24.4714 34.7844 30.1622 28.498 30.3387Z"/><path id="Vector_7" fill="#B7B7B7" d="M30.6553 25.5434C30.6553 25.5434 29.7509 26.161 28.498 26.0552V30.3387L30.6553 25.5434ZM33.311 21.3525H37.2504C37.2504 21.3525 37.343 21.926 37.0298 22.9363C36.2049 22.5789 33.311 21.3525 33.311 21.3525Z"/></g></g></svg>

<svg xmlns="http://www.w3.org/2000/svg" fill="none" aria-hidden="true" viewBox="0 0 48 48"><path fill="#F4B500" d="M20.412 22.24H8.435s-.63 7.847 6.255 14.34c6.274 5.912 13.804 5.41 13.804 5.41V30.338c-3.957 0-8.082-3.291-8.082-8.1Z"/><path fill="#4481F6" d="M27.316 15.313V6.005s-6.635-.362-11.752 5.034c-4.01 4.168-4.368 9.427-4.368 9.427s7.43 1.39 9.211 1.773c-.048-3.926 3.027-6.926 6.909-6.926Z"/><path fill="#3566C5" d="M11.2 20.466s-.158.957-.066 1.773h9.278L11.2 20.466Z"/><path fill="#AF362B" d="m27.316 15.313 1.787-6.432s-1.156-.15-1.787-.08v6.512Z"/><path fill="#DB4533" d="M27.316 15.313s5.73-.119 5.996 6.044h6.264S40.14 11.294 29.103 8.88c-.441 1.602-1.787 6.432-1.787 6.432Z"/><path fill="#CCC" d="m28.498 30.339 2.157-4.796s2.546-1.208 2.66-4.19c.825.361 2.81 1.182 3.72 1.583-.2 1.535-2.25 7.226-8.537 7.403Z"/><path fill="#B7B7B7" d="M30.655 25.543s-.904.618-2.157.512v4.284l2.157-4.796Zm2.656-4.19h3.94s.092.573-.221 1.583c-.825-.357-3.719-1.584-3.719-1.584Z"/></svg>
